Numix-GalliumOS/64/actions/package-installed-outdated.svg

<?xml version="1.0" encoding="UTF-8" standalone="no"?>
<svg
   xmlns:dc="http://purl.org/dc/elements/1.1/"
   xmlns:cc="http://creativecommons.org/ns#"
   xmlns:rdf="http://www.w3.org/1999/02/22-rdf-syntax-ns#"
   xmlns:svg="http://www.w3.org/2000/svg"
   xmlns="http://www.w3.org/2000/svg"
   xmlns:sodipodi="http://sodipodi.sourceforge.net/DTD/sodipodi-0.dtd"
   xmlns:inkscape="http://www.inkscape.org/namespaces/inkscape"
   width="64"
   height="64"
   viewBox="0 0 64 64"
   id="svg2"
   version="1.1"
   inkscape:version="0.48.4 r9939"
   sodipodi:docname="package-install.svg">
  <metadata
     id="metadata18">
    <rdf:RDF>
      <cc:Work
         rdf:about="">
        <dc:format>image/svg+xml</dc:format>
        <dc:type
           rdf:resource="http://purl.org/dc/dcmitype/StillImage" />
        <dc:title></dc:title>
      </cc:Work>
    </rdf:RDF>
  </metadata>
  <defs
     id="defs16" />
  <sodipodi:namedview
     pagecolor="#ffffff"
     bordercolor="#666666"
     borderopacity="1"
     objecttolerance="10"
     gridtolerance="10"
     guidetolerance="10"
     inkscape:pageopacity="0"
     inkscape:pageshadow="2"
     inkscape:window-width="640"
     inkscape:window-height="480"
     id="namedview14"
     showgrid="false"
     inkscape:zoom="3.6875"
     inkscape:cx="32"
     inkscape:cy="32"
     inkscape:window-x="0"
     inkscape:window-y="27"
     inkscape:window-maximized="0"
     inkscape:current-layer="svg2" />
  <path
     style="fill:#c19553"
     d="M 4 0 C 2.257812 0 0 2.257812 0 4 L 0 56 C 0 57.644531 2.355469 60 4 60 L 56 60 C 57.644531 60 60 57.644531 60 56 L 60 4 C 60 2.355469 57.644531 0 56 0 Z "
     id="path4" />
  <g
     style="fill:#fff"
     id="g6">
    <path
       style="fill-opacity:.196"
       d="M 4 0 C 2.257812 0 0 2.257812 0 4 L 0 20 C 6.773438 20 53.226562 20 60 20 L 60 4 C 60 2.355469 57.644531 0 56 0 Z "
       id="path8" />
    <path
       style="fill-opacity:.392"
       d="M 24 8 L 24 32 L 36 32 L 36 8 Z "
       id="path10" />
  </g>
  <path
     style="fill:#888888"
     d="M 46.285156,28 28,44 l 12,0 0,20 12,0 0,-20 12,0 z"
     id="path12"
     inkscape:connector-curvature="0" />
</svg>

<svg xmlns="http://www.w3.org/2000/svg" viewBox="0 0 64 64">
 <path d="m 4 0 c -1.742 0 -4 2.258 -4 4 l 0 52 c 0 1.645 2.355 4 4 4 l 52 0 c 1.645 0 4 -2.355 4 -4 l 0 -52 c 0 -1.645 -2.355 -4 -4 -4 Z" style="fill:#c19553"/>
 <g style="fill:#fff">
  <path d="m 4 0 c -1.742 0 -4 2.258 -4 4 l 0 16 c 6.773 0 53.23 0 60 0 l 0 -16 c 0 -1.645 -2.355 -4 -4 -4 Z" style="fill-opacity:0.196"/>
  <path d="m 24 8 l 0 24 l 12 0 l 0 -24 Z" style="fill-opacity:0.392"/>
 </g>
 <path d="M 46.285156,28 28,44 l 12,0 0,20 12,0 0,-20 12,0 z" style="fill:#888"/>
</svg>
